Obsidian/places/16s/mail-private-symbolic.svg

<svg height="16" width="16" xmlns="http://www.w3.org/2000/svg" xmlns:xlink="http://www.w3.org/1999/xlink"><linearGradient id="a" gradientUnits="userSpaceOnUse" x1="11.523069" x2="11.523069" y1="1.030721" y2="15.54048"><stop offset="0"/><stop offset="1" stop-color="#363636"/></linearGradient><g fill-rule="evenodd"><path d="m14 9-6 7-6-7h3v-6h6v6h3z" fill="#fff" opacity=".6"/><path d="m14 8-6 7-6-7h3v-6h6v6h3z" fill="url(#a)" opacity=".7"/></g></svg>

<?xml version="1.0" encoding="UTF-8" standalone="no"?>
<!-- Created with Inkscape (http://www.inkscape.org/) -->
<svg
   xmlns:svg="http://www.w3.org/2000/svg"
   xmlns="http://www.w3.org/2000/svg"
   xmlns:xlink="http://www.w3.org/1999/xlink"
   version="1.0"
   width="16"
   height="16"
   id="svg3195">
  <defs
     id="defs3197">
    <linearGradient
       id="linearGradient3587-6-5">
      <stop
         id="stop3589-9-2"
         style="stop-color:#000000;stop-opacity:1"
         offset="0" />
      <stop
         id="stop3591-7-4"
         style="stop-color:#363636;stop-opacity:1"
         offset="1" />
    </linearGradient>
    <linearGradient
       x1="-2.4040222"
       y1="4.4573336"
       x2="-2.4040222"
       y2="18.967093"
       id="linearGradient3878"
       xlink:href="#linearGradient3587-6-5"
       gradientUnits="userSpaceOnUse"
       gradientTransform="translate(13.927091,-3.4266134)" />
  </defs>
  <g
     id="layer1">
    <path
       d="M 14,9 L 8,16 L 2,9 L 5,9 L 5,3 L 11,3 L 11,9 L 14,9 z"
       id="path3191"
       style="opacity:0.6;fill:#ffffff;fill-opacity:1;fill-rule:evenodd;stroke:none;stroke-width:1;stroke-linecap:butt;stroke-linejoin:miter;marker:none;marker-start:none;marker-mid:none;marker-end:none;stroke-miterlimit:4;stroke-dasharray:none;stroke-dashoffset:0;stroke-opacity:1;visibility:visible;display:inline;overflow:visible;enable-background:accumulate" />
    <path
       d="M 14,8 L 8,15 L 2,8 L 5,8 L 5,2 L 11,2 L 11,8 L 14,8 z"
       id="path3288"
       style="opacity:0.7;fill:url(#linearGradient3878);fill-opacity:1;fill-rule:evenodd;stroke:none;stroke-width:1;stroke-linecap:butt;stroke-linejoin:miter;marker:none;marker-start:none;marker-mid:none;marker-end:none;stroke-miterlimit:4;stroke-dasharray:none;stroke-dashoffset:0;stroke-opacity:1;visibility:visible;display:inline;overflow:visible;enable-background:accumulate" />
  </g>
</svg>
